X: 111
T: La Chantilly
%R: march, reel
B: Stewart "A Select Collection of Airs, Jigs, Marches and Reels", ca.1784, p.53 #111
F: http://imslp.org/wiki/A_Select_Collection_of_Airs,_Jigs,_Marches_and_Reels_%28Various%29
Z: 2017 John Chambers <jc:trillian.mit.edu>
M: 2/4
L: 1/16
K: D
|:\
D2F2A2d2 | ({d}Tc3B/c/) A4 |\
A2c2e2g2 | ({g}Tf3e/f/) d4 |\
f2f2g2g2 | e2e2f2f2 |\
d2d2e2e2 | c2c2 d2z2 ::\
e4 (dcBA) | e2e2c2A2 |
a4 (gfed) | a2a2f2d2 |\
f2f2g2g2 | e2e2f2f2 | d2d2e2e2 | c2c2 d4 ::\
d4 f2a2 | a4 g2f2 |\
g2e2d2c2 | (dc)(de) d2A2 |\
d4 f2a2 | a4 g2f2 |
g2e2d2c2 | {c}d4 d4 ::\
A2A2 (TA3G/A/) | B2B2 B4 |\
c2e2 gedc | d2d2 d4 |\
d4 f2a2 | a4 g2f2 |\
g2e2d2c2 | d4 d4 :|

%%sep 1 1 500
%%sep 1 1 500

